X:1
T:Title
%%score { 1 | 2 }
L:1/8
Q:1/4=104
M:4/4
K:F
V:1 treble nm="Grand Piano"
V:2 bass 
V:1
 [CFA]4 [CFA]3 [B,EG] | [B,EG]2 [A,F]2 [A,F]4 | [B,DF]4 [F,DF]3 [F,DF] | A8 | c4 c3 B | B2 A2 A4 | %6
w: From~Samuel~Wesley * *||||||
 E4 E3 E | [^CA]8 | [Dd]4 [Ad]3 [Ac] | [Ac]2 [GB]2 [GB]4 | [Bd]4 [Ac]3 [GB] | [FA]8 | %12
w: ||||||
 [Ff]4 [Fe]3 [Fd] | [CFc]2 [CEA]2 [A,F]2 [DGB]2 | [CFA]4 [B,EG]3 [A,F] | [A,F]8 |] %16
w: ||||
V:2
 F,4 C,3 C, | D,2 D,2 D,4 | B,,4 B,,3 B,, | [F,C]8 | [A,CF]4 [G,CE]3[K:bass] [G,CE] | %5
 [F,CF]2 [F,C]2 [F,A,C]4 | [E,A,^C]4 [E,_A,=B,]3 [E,A,B,] | [A,,A,]8 | [^F,A,]4 [F,D]3 [F,D] | %9
 [G,D]2 [G,D]2 [G,D]4 | [E,C]4 [E,C]3 [E,C] | [F,C]8 | [D,F,]4 [C,A,]3 [B,,B,] | %13
 A,,2 C,2 D,2 B,,2 | C,4 C,3 F, | F,8 |] %16

